Catalina-light/actions/16/object-rows.svg

<svg width="16" height="16" viewBox="0 0 16 16" xmlns="http://www.w3.org/2000/svg">
<defs>
<style id="current-color-scheme" type="text/css">.ColorScheme-Text { color:#5c616c; } .ColorScheme-Highlight { color:#5294e2; }</style>
</defs>
<path class="ColorScheme-Text" d="m2 3v2h12v-2h-12zm0 4v2h12v-2h-12zm0 4v2h12v-2h-12z" fill="currentColor"/>
</svg>

<svg xmlns="http://www.w3.org/2000/svg" width="16" height="16" viewBox="0 0 16 16">
 <defs>
  <style id="current-color-scheme" type="text/css">
   .ColorScheme-Text { color:#5c616c; } .ColorScheme-Highlight { color:#5294e2; }
  </style>
 </defs>
 <path style="fill:currentColor" class="ColorScheme-Text" d="M 2 3 L 2 5 L 14 5 L 14 3 L 2 3 z M 2 7 L 2 9 L 14 9 L 14 7 L 2 7 z M 2 11 L 2 13 L 14 13 L 14 11 L 2 11 z"/>
</svg>
